X:1
T:Title
%%score { ( 1 3 ) | ( 2 4 ) }
L:1/8
M:4/4
K:Bb
V:1 treble nm="Grand Piano"
V:3 treble 
V:2 bass 
V:4 bass 
V:1
 z4 z2[Q:1/4=100] [B,DF]2 | [B,DF]3[K:bass] [F,CE] [F,B,D][F,CE][K:treble][B,DF][B,FB] | %2
 [GB]4 G2 [EGc]2 | [DFB]3 [DFB] [DFB][DFB][CFA][CEG] |[M:3/4] [EG]4 F2 |[M:1/4] [B,DF]2 | %6
[M:4/4] [B,DF]3[K:bass] [F,CE] [F,B,D][F,CE][K:treble][B,DF][B,FB] | [GB]4 G2 [EGc]2 | %8
 B3 B BA d>c |[M:3/4] [DB]6 |[M:1/4] B2 |[M:4/4] d3 d [^Fd][Fd][Fd][Fc] | B3 A G2 G2 | %13
 [=Ec]3 [Ec] [Ec][Ec][Ec][EB] |[M:3/4] A3 G F2 |[M:1/4] [A,EF]2 | %16
[M:4/4] [B,DF]3[K:bass] [F,CE] [F,B,D][F,CE][K:treble][B,DF][B,FB] | [GB]4 G2 [EGc]2 | %18
 B3 B BA d>c |[M:3/4] [DB]6 |] %20
V:2
 z4 z2 B,,2 | B,,3 B,, B,,B,,B,,D, | z4 E2 C,2 | F,3 F, F,F, F,G,/A,/ |[M:3/4] z2 z2 D2 | %5
[M:1/4] B,,2 |[M:4/4] B,,3 B,, B,,B,,B,,D, | z4 E2 C,2 | %8
 [F,DF]3 [F,DF] [F,DF][F,CF] [F,B,F]>[F,A,E] |[M:3/4] [B,,B,]6 |[M:1/4][K:treble] [B,D]2 | %11
[M:4/4] [G,B,G]3 [G,B,G][K:bass] [D,A,][D,A,][D,A,][D,D] | D4 z4 | %13
 [C,C]3 [C,G,] [C,G,][C,G,][C,G,][C,C] |[M:3/4] C4 z2 |[M:1/4] F,2 |[M:4/4] B,,3 B,, B,,B,,B,,D, | %17
 z4 E2 C,2 | [F,DF]3 [F,DF] [F,DF][F,CF] [F,B,F]>[F,A,E] |[M:3/4] [B,,B,]6 |] %20
V:3
 x8 | x3[K:bass] x3[K:treble] x2 | B,6 z2 | x8 |[M:3/4] x6 |[M:1/4] x2 | %6
[M:4/4] x3[K:bass] x3[K:treble] x2 | B,6 z2 | x8 |[M:3/4] x6 |[M:1/4] x2 |[M:4/4] x8 | x8 | x8 | %14
[M:3/4] x6 |[M:1/4] x2 |[M:4/4] x3[K:bass] x3[K:treble] x2 | B,6 z2 | x8 |[M:3/4] x6 |] %20
V:4
 x8 | x8 | E,6 z2 | x8 |[M:3/4] B,6 |[M:1/4] x2 |[M:4/4] x8 | E,6 z2 | x8 |[M:3/4] x6 | %10
[M:1/4][K:treble] x2 |[M:4/4] x4[K:bass] x4 | [G,G]3- [G,-CG] [G,B,]2 [G,=B,F]2 | x8 | %14
[M:3/4] [F,F]3- [F,-B,F] [F,A,]2 |[M:1/4] x2 |[M:4/4] x8 | E,6 z2 | x8 |[M:3/4] x6 |] %20

